X:641
T:Mazurka d'Auvergne
T:Mazurka Gentiane
F:http://www.banjolin.co.uk/tunes/abcs/mazurkadauvergne.abc
R:Mazurka
S:Colin Hume's website,  colinhume.com  - chords can also be printed below the stave.
Q:1/4=120
M:3/4
L:1/8
O:France
K:G
P:A
|: "G"DG GF G2 | "/"DB BA B2 | "Am"cB AG FG | "D7"AG FE ED |
"G"DG GF G2 | "/"DB BA B2 | "Am"cB AG "D7"FA |1 "G"G2G2 z2 :|2 "G"G2G2 Bc |
P:B
|: "G"d2 de dc | "Em"B2G2 AB | "Am"cB cd cB | "D7"A4 Bc |
"G"d2 de dc | "Em"B2G2 AB | "Am"cB AG "D7"FA |1 "G"G4 Bc :|2 "G"G2G2 z2 |]

